src/assets/filled/TextItalic.svg

<?xml version="1.0" encoding="UTF-8"?>
<svg width="24" height="24" viewBox="0 0 24 24" xmlns="http://www.w3.org/2000/svg">
 <path d="m20.95 4.13c-0.29-0.42-0.66-0.79-1.08-1.08-0.95-0.69-2.19-1.05-3.68-1.05h-8.38c-0.2 0-0.4 0.01-0.59 0.03-3.28 0.21-5.22 2.34-5.22 5.78v8.38c0 1.49 0.36 2.73 1.05 3.68 0.29 0.42 0.66 0.79 1.08 1.08 0.82 0.6 1.86 0.95 3.09 1.03 0.19 0.01 0.39 0.02 0.59 0.02h8.38c3.64 0 5.81-2.17 5.81-5.81v-8.38c0-1.49-0.36-2.73-1.05-3.68zm-5.08 3.38h-1.95l-2.24 8.97h1.84c0.41 0 0.75 0.34 0.75 0.75s-0.34 0.75-0.75 0.75h-5.39c-0.41 0-0.75-0.34-0.75-0.75s0.34-0.75 0.75-0.75h2l2.24-8.97h-1.89c-0.41 0-0.75-0.34-0.75-0.75s0.34-0.75 0.75-0.75h5.38c0.41 0 0.75 0.34 0.75 0.75s-0.33 0.75-0.74 0.75z"/>
</svg>

<svg width="24" height="24" viewBox="0 0 24 24"  xmlns="http://www.w3.org/2000/svg">
<path d="M20.95 4.13C20.66 3.71 20.29 3.34 19.87 3.05C18.92 2.36 17.68 2 16.19 2H7.81C7.61 2 7.41 2.01 7.22 2.03C3.94 2.24 2 4.37 2 7.81V16.19C2 17.68 2.36 18.92 3.05 19.87C3.34 20.29 3.71 20.66 4.13 20.95C4.95 21.55 5.99 21.9 7.22 21.98C7.41 21.99 7.61 22 7.81 22H16.19C19.83 22 22 19.83 22 16.19V7.81C22 6.32 21.64 5.08 20.95 4.13ZM15.87 7.51H13.92L11.68 16.48H13.52C13.93 16.48 14.27 16.82 14.27 17.23C14.27 17.64 13.93 17.98 13.52 17.98H8.13C7.72 17.98 7.38 17.64 7.38 17.23C7.38 16.82 7.72 16.48 8.13 16.48H10.13L12.37 7.51H10.48C10.07 7.51 9.73 7.17 9.73 6.76C9.73 6.35 10.07 6.01 10.48 6.01H15.86C16.27 6.01 16.61 6.35 16.61 6.76C16.61 7.17 16.28 7.51 15.87 7.51Z" />
</svg>
